X: 29149
T: Never Far Away
R: reel
M: 4/4
K: Gmajor
GA Bc (3BAGd2|cB AG (3Bcd e2|de gbag ed|
dg eddBA2|GA Bc (3BAG d2|cB AG (3Bcd e2|
de gbag ed|(3BAG EDDE G2:|
g e3 dB d2|BA BG G3 d|gb ag ed (3Bcd|
e2 ed e2 bg|ee d(e e2) (3efg|dB BA B2 AG||
Bc (3BAG cd (3BAG|FA dA d2 gf|e2 dB d2 BA|
B2 G2 G2 d2|gbag ed (3Bcd|e2 ed e2 ga|
b2 ebba gf|g2 (3Bcd gf ed|Bc (3BAG cd (3BAG|
FA dA d4||
w: Repeat all and then
GA Bc (3BAG d2|cB AG (3Bcd e2|de gbag ed|
dg eddBA2|GA Bc (3BAG d2|cB AG (3Bcd ( e2|e8)|
w:Slower to Finish
de gbag ed|(3Bcd gbag ed|(3Bcd gbag ed|
(3BAG ED DE G2||



